X: 1348
T: Salamanca Reel
R:Reel
N:Collected by J. O'Neill
B:O'Neill's 1348
Z:Transcribed by Trish O'Neil
M:C|
L:1/8
K:D
dB|A>D (3FED A>D (3FED|Adcd fdcd|B>E (3GFE B>E (3GFE|Beed cdeg|
fddg fdcA|Bdce dfag|fdec dBAG|FGEFD2||
(fg)|afdg bgeg|fdec dcBA|Bdce dfeg|fagba2fg|
abaf gfeg|fdec dfag|fdec dBAG|FGEFD2|]


